X:1
T:Title
%%score { ( 1 3 ) | ( 2 4 ) }
L:1/8
Q:1/4=94
M:4/4
K:Eb
V:1 treble nm="Grand Piano"
V:3 treble 
V:2 bass 
V:4 bass 
V:1
 G2 _G=G BcBG | B2 =A2 _A4 |[M:3/4] [FA]2 [=EG][FA] [DF][_EG] |[M:1/4] [FA][GB] | %4
w: James~M.~Black * * * * * *||||
[M:4/4] [Ad]2 [DAc]2 [GB]4 | [GB]2 [_G=A][=GB] [_Ac][GB][B,FA][B,EG] |[M:3/4] [CEF]2 [Ec]2 [Ec]2 | %7
w: |||
[M:1/4] [EAc]2 |[M:4/4] [EGB]3 [EGc] [B,EG]2 [A,DF]2 | [G,B,E]6 z2 | [EGB]3 [B,EG] [Ge]2 [EBd]2 | %11
w: ||||
 [FA]6 z2 | [DFA]3 [DF] [Bd]2 [DAc]2 | [GB]6 z2 | [GB]3 [GB] [FA]GAB | c2 e2 e2 c2 | %16
w: |||||
 B3 e [EG]2 [DF]2 | E6 z2 |] %18
w: ||
V:2
 [E,B,E]2 [E,=A,E][E,B,E] [E,G,E][E,A,E][E,G,E][E,B,E] | [G,B,E]2 [_G,CE]2 [F,B,D]4 | %2
[M:3/4] [B,,B,]2 [B,,B,][B,,B,] [B,,B,][B,,B,] |[M:1/4] [B,,B,][B,,B,] | %4
[M:4/4] [B,,B,]2 B,,2 [E,E]4 | [E,E]2 [E,E][E,E] [E,E][E,E]E,E, |[M:3/4] A,,2 [A,,A,]2 [A,,A,]2 | %7
[M:1/4] A,,2 |[M:4/4] B,,3 B,, B,,2 B,,2 | E,6 z2 | E,3 E, [E,B,]2 E,2 | B,,B,,D,F, B,2 z2 | %12
 B,,3 [B,,B,] [B,,B,]2 B,,2 | E,E,E,E, E,2 z2 | %14
 [E,E]3 [E,E] [E,B,][E,B,E][F,B,D][K:treble][G,B,E] | [A,E]4 [A,CA]2 [A,EA]2 | %16
 [B,EG]3 [B,G][K:bass] [B,,B,]2 [B,,A,]2 | .[G,B,]2 z2 z4 |] %18
V:3
 x8 | x8 |[M:3/4] x6 |[M:1/4] x2 |[M:4/4] x8 | x8 |[M:3/4] x6 |[M:1/4] x2 |[M:4/4] x8 | x8 | x8 | %11
 DDDD D2 z2 | x8 | EEEE E2 z2 | x8 | x8 | x8 | z B,CC B,2 z2 |] %18
V:4
 x8 | x8 |[M:3/4] x6 |[M:1/4] x2 |[M:4/4] x8 | x8 |[M:3/4] x6 |[M:1/4] x2 |[M:4/4] x8 | x8 | x8 | %11
 x8 | x8 | x8 | x7[K:treble] x | x8 | x4[K:bass] x4 | E,-[E,-G,][E,-A,][E,-A,] [E,G,]2 z2 |] %18

